dist/img/icons/arrow-down.svg

<svg width="12" height="8" viewBox="0 0 12 8" fill="none" xmlns="http://www.w3.org/2000/svg">
<path d="M5.40234 7.4248L0.621094 2.64355C0.457031 2.47949 0.375 2.28027 0.375 2.0459C0.375 1.81152 0.457031 1.6123 0.621094 1.44824L1.42969 0.674805C1.59375 0.510742 1.79297 0.428711 2.02734 0.428711C2.26172 0.428711 2.46094 0.510742 2.625 0.674805L6 4.0498L9.375 0.674805C9.53906 0.510742 9.73828 0.428711 9.97266 0.428711C10.207 0.428711 10.4062 0.510742 10.5703 0.674805L11.3789 1.44824C11.543 1.6123 11.625 1.81152 11.625 2.0459C11.625 2.28027 11.543 2.47949 11.3789 2.64355L6.59766 7.4248C6.43359 7.58887 6.23438 7.6709 6 7.6709C5.76562 7.6709 5.56641 7.58887 5.40234 7.4248Z" fill="black"/>
</svg>

<svg width="12" height="8" viewBox="0 0 12 8" fill="none" xmlns="http://www.w3.org/2000/svg"><path d="M5.402 7.425L.622 2.644a.814.814 0 0 1-.247-.598c0-.234.082-.434.246-.598L1.43.675a.814.814 0 0 1 .597-.246c.235 0 .434.082.598.246L6 4.05 9.375.675a.814.814 0 0 1 .598-.246c.234 0 .433.082.597.246l.809.773a.814.814 0 0 1 .246.598.814.814 0 0 1-.246.598l-4.781 4.78A.814.814 0 0 1 6 7.672a.814.814 0 0 1-.598-.246z" fill="#000"/></svg>
